X:1535
T:East Parkside
C:Nigel Gatherer
Z:Nigel Gatherer <gatherer@argonet.co.uk>
R:Air
M:3/4
L:1/8
K:D
FE|D4 FG|A4 cd|B4 cd|A4 cd|G4 cd|F4 cd|e4- eA|g4 ag|
f3 def|e3 cde|d2 c2 B2|A F3 D2|A,2 DE F2|A,2 CD EF|G6-|G4:|
AG|F3 Adc|d4 A2|G3 Bdc|d4 B2|A2 c2 d2|B2 c2 d2|e4- eA|g4 ag|
f2 defd|e2 cdec|d2 c2 B2|A F3 D2|A,2 DE F2|A,2 CD EF|G6-|G4:|
